X:84
%%vocalfont Baskerville10Pro 11
%%pagewidth 7.5in
%%score 1 2
T:The fit's come on me now
M:9/8
L:1/8
K:D
V:1 clef-treble
V:2 clef-bass octave=-1
V:1
D|D2A (FD)[DA][DB]2[DA]|D2A (FD)[DA][Dd]2[DA]|
w:The fit's up on* me now, The fit's up on* me now, Come
V:2
[D,D]|[D,D]3-[D,D]2FE2[D,D]|[D,D]3-[D,D]2EB2[D,D]|
V:1
D2A (FD)[DA][DB]2[Gc]|([Dd]A)[DB] ([FA]F)D[CE]2||D|[Dd]2A (dA)[Ad][ce]2[Af]|
w:quick-ly gen-*tle lady, The fit's* up-on* me now. The world shall know they-re fools, And
V:2
[D,D]3-[D,D]2FG2E|F2GD2BA2||[D,D]|[D,D]3-[D,D]2FA2[D,D]|
V:1
[Fd]2A (df)[^Gde][Ace]2A|[Ad]2[GA] ([Fd]A)[Ad][^Gde]2[=Gcf]|([Fd]A)[DB] ([DA]F)D[CE]2||
w:so shalt thou* do too, `Let cob-blers mend* their tools,' The fit's* up-on* me now.
V:2
[D,D]3-[D,D]2[E,E][A,,A,]2[G,G]|[F,F]2[E,E][D,D]2[C,C][B,,B,]2[A,,A,]|[D,D]2GF2BA2||

